X: 10302
T: BLUE BONNETS -- Contre Dance
R: jig
B: K\"ohler's Violin Repository, v.1, 1885 p.30 #2
F: http://www.archive.org/details/klersviolinrepos01edin
Z: 2011 John Chambers <jc:trillian.mit.edu>
M: 6/8
L: 1/8
K: Bb
|:\
v[B2D2]z v[B3-D3] | B>dc (.B2.F) | G>AG (.G2.f) | g>fe d>ec |\
v[B2D2]z v[B3-D3] | B>dc (.B2.F) | B>AG F>DF | B>cd (c2B) :|
|:\
B>df f>df | g>fe d>cB | B>df g>ab | B>cd (c2B) |\
B>df f>df | g>fe d>cB | B>AG F>DF | B>cd (c2B) :|

%%sep 2 1 500

